packages/icons/svg/24/LockLock.svg

<svg width="24" height="24" viewBox="0 0 24 24" fill="none" xmlns="http://www.w3.org/2000/svg">
<path fill-rule="evenodd" clip-rule="evenodd" d="M18 11C19.1046 11 20 11.8954 20 13V19C20 20.1046 19.1046 21 18 21H6C4.89543 21 4 20.1046 4 19V13C4 11.8954 4.89543 11 6 11V9C6 5.68629 8.68629 3 12 3C15.3137 3 18 5.68629 18 9V11ZM9 11H15V9C15 7.34315 13.6569 6 12 6C10.3431 6 9 7.34315 9 9V11Z" fill="#858585"/>
</svg>

<svg width="24" height="24" fill="none" xmlns="http://www.w3.org/2000/svg" viewBox="0 0 24 24"><path fill-rule="evenodd" clip-rule="evenodd" d="M18 11a2 2 0 012 2v6a2 2 0 01-2 2H6a2 2 0 01-2-2v-6a2 2 0 012-2V9a6 6 0 1112 0v2zm-9 0h6V9a3 3 0 10-6 0v2z" fill="currentColor"></path></svg>
